public/img/vanuatu/terms-icn.svg

<?xml version="1.0" encoding="UTF-8" standalone="no"?>
<svg width="34px" height="38px" viewBox="0 0 34 38" version="1.1" xmlns="http://www.w3.org/2000/svg" xmlns:xlink="http://www.w3.org/1999/xlink">
    <!-- Generator: sketchtool 40.3 (33839) - http://www.bohemiancoding.com/sketch -->
    <title>24A6BA17-D81A-418E-8934-9511B8388BB2</title>
    <desc>Created with sketchtool.</desc>
    <defs>
        <path d="M24.7053562,37.296984 C24.3170911,37.685249 23.5636275,38 23.0033715,38 L2.99765987,38 C1.34209804,38 0,36.6475599 0,35.0023401 L0,2.99765987 C0,1.34209804 1.35244012,0 2.99765987,0 L31.0023401,0 C32.657902,0 34,1.35244012 34,2.99765987 L34,27.0066967 C34,27.5565754 33.6898268,28.3125133 33.296984,28.7053562 L24.7053562,37.296984 Z" id="path-1"></path>
        <mask id="mask-2" maskContentUnits="userSpaceOnUse" maskUnits="objectBoundingBox" x="0" y="0" width="34" height="38" fill="white">
            <use xlink:href="#path-1"></use>
        </mask>
        <path d="M22,38.0012144 L22,28.9987856 C22,27.3426021 23.3422643,26 24.9987856,26 L34.0012144,26" id="path-3"></path>
        <mask id="mask-4" maskContentUnits="userSpaceOnUse" maskUnits="objectBoundingBox" x="0" y="0" width="12.0012144" height="12.0012144" fill="white">
            <use xlink:href="#path-3"></use>
        </mask>
    </defs>
    <g id="Lykke-World" stroke="none" stroke-width="1" fill="none" fill-rule="evenodd">
        <g id="lykke_vanuatu" transform="translate(-481.000000, -856.000000)" stroke="#40474F">
            <g id="terms_icn" transform="translate(481.000000, 856.000000)">
                <g id="Group-3">
                    <use id="Rectangle-26-Copy-4" mask="url(#mask-2)" stroke-width="4" xlink:href="#path-1"></use>
                    <path d="M2,8 L33,8" id="Path-125" stroke-width="2" stroke-linecap="round"></path>
                    <use id="Rectangle-26" mask="url(#mask-4)" stroke-width="4" stroke-linecap="square" xlink:href="#path-3"></use>
                    <path d="M7,15 L27,15" id="Path-125" stroke-width="2" stroke-linecap="round"></path>
                    <path d="M7,21 L27,21" id="Path-125-Copy-2" stroke-width="2" stroke-linecap="round"></path>
                    <path d="M7,27 L17,27" id="Path-125-Copy-6" stroke-width="2" stroke-linecap="round"></path>
                </g>
            </g>
        </g>
    </g>
</svg>

<svg width="34" height="38" viewBox="0 0 34 38" xmlns="http://www.w3.org/2000/svg" xmlns:xlink="http://www.w3.org/1999/xlink"><title>24A6BA17-D81A-418E-8934-9511B8388BB2</title><defs><path d="M24.705 37.297c-.388.388-1.14.703-1.702.703H2.998C1.342 38 0 36.648 0 35.002V2.998C0 1.342 1.352 0 2.998 0h28.004C32.658 0 34 1.352 34 2.998v24.01c0 .55-.31 1.305-.703 1.697l-8.592 8.592z" id="a"/><mask id="c" x="0" y="0" width="34" height="38" fill="#fff"><use xlink:href="#a"/></mask><path d="M22 38v-9c0-1.657 1.342-3 3-3h9" id="b"/><mask id="d" x="0" y="0" width="12.001" height="12.001" fill="#fff"><use xlink:href="#b"/></mask></defs><g stroke="#40474F" fill="none" fill-rule="evenodd"><use mask="url(#c)" stroke-width="4" xlink:href="#a"/><path d="M2 8h31" stroke-width="2" stroke-linecap="round"/><use mask="url(#d)" stroke-width="4" stroke-linecap="square" xlink:href="#b"/><path d="M7 15h20M7 21h20M7 27h10" stroke-width="2" stroke-linecap="round"/></g></svg>
